X:49
T:For the Sake O Somebody
C:arr. Carlo Minasi
M:C
L:1/8
B:Chappell's One Hundred Scotch Melodies
B:Arranged for the Concertina by Carlo Minasi
Q:"Andante  "1/4=140
Z:Peter Dunk 2012
K:G
!p!D/|G>Bd>B A>GA>B|G>G[BG]>[dB] L[e2c2G2C2] (d<B)|\
(G>Bd>B) (A>GA>B)|(G>E)(E>D) d2 L(B<G)||
L[e2c2](c>e) [d2B2] (B<G)|L[c2A2F2] (B>G) [A2F2D2] (F<D)|\
G>BA>c "_rall."B(e/>d/) "_'a tempo.'"H[d2A2F2D2]|\
(G>E)(E>D) [d2F2] (B<G)||

